X: 20862
M: 6/8
L: 1/8
K: F
V: 1 name="2"
c=Bc Aag | .f.e.d .c.B.A | GAB Ggf | .e.d.c .B.A.G |\
c=Bc Aag | fed cBA | BAB Bge | (g3 f2) H|]
e/f/ |\
g3 edc & G3 GFE | [cA]=BB BB/c/d/e/ & D3 =B,3 |\
f3 x3 & G3 fed | g2e c/B/c/d/e/f/ & CEE E3 |\
g3 gfd & G3 GFE | dcd fga & A3 d3 |\
gec x3 & c3 BgB | x3 "^D.C."x2 & d3 c2 |]
K: Bb
bfd BFD | B,DF Bdf | c'fd Bcd | c=ef _ecA |\
dBA GEC | A,CF Acf | ecA FGA | Bdc "^D.C."B2 |]


